icons/gym_fill.svg

<svg
  xmlns="http://www.w3.org/2000/svg"
  width="24"
  height="24"
  viewBox="0 0 24 24"
  fill="none"
  stroke="currentColor"
  stroke-width="2"
  stroke-linecap="round"
  stroke-linejoin="round"
>
  <path
    fill-rule="evenodd"
    d="M9 6a3 3 0 0 0-3 3v30a3 3 0 0 0 3 3h30a3 3 0 0 0 3-3V9a3 3 0 0 0-3-3zm23 10h-3v16h3zm2 3h3v4h1v2h-1v4h-3zM16 32h3V16h-3zm-2-3h-3v-4h-1v-2h1v-4h3zm7-4h6v-2h-6z"
    clip-rule="evenodd"
  />
</svg>

<svg width="48" height="48" viewBox="0 0 48 48" fill="none" xmlns="http://www.w3.org/2000/svg">
<path fill-rule="evenodd" clip-rule="evenodd" d="M9 6C7.34315 6 6 7.34315 6 9V39C6 40.6569 7.34315 42 9 42H39C40.6569 42 42 40.6569 42 39V9C42 7.34315 40.6569 6 39 6H9ZM32 16H29V32H32V16ZM34 19H37V23H38V25H37V29H34V19ZM16 32H19L19 16H16L16 32ZM14 29H11L11 25H10V23H11L11 19H14L14 29ZM21 25H27V23H21V25Z" fill="black"/>
</svg>
